dist/svg/u1F9BE.svg

<?xml version="1.0" encoding="UTF-8"?><svg id="Layer_1" xmlns="http://www.w3.org/2000/svg" viewBox="0 0 40 40"><g><path d="M10.90051,10.88411h0c-1.44704,0-2.6971,1.00307-3.01056,2.41575-1.04818,4.72375-3.02141,14.97411-3.05918,18.18918-.00045,.03837-.00064,.07651-.00058,.11441,.00703,4.09173,5.78688,5.02109,7.19862,1.18061l2.20235-5.99124s-.15931-8.27482-.24774-12.88869c-.03219-1.67966-1.40293-3.02002-3.0829-3.02002Z" style="fill:#8595aa;"/><path d="M25.21418,37.05443c2.95068,0,9.95565-2.41085,9.95565-7.4621,0-5.38772-4.06646-8.29774-10.86866-8.29774-5.40069,0-13.72137,5.00987-15.85275,7.84695-1.48607,1.97811-1.40816,4.82665,.38741,6.52878,.87193,.82656,2.05237,1.34816,3.39351,1.35172,6.17887,.01642,11.01059,.03238,12.98484,.03238Z" style="fill:#65778e;"/><path d="M23.17038,11.51002c.34417-.86133-.40693-1.57291-.40693-1.57291l-5.29524,3.47812c1.02503-.18842,3.01711-.55253,3.48717-.62642,.63964-.10082,1.87071-.41794,2.21499-1.27879Z" style="fill:#65778e;"/><path d="M15.67593,13.41523h1.79228l5.29524-3.47812c2.2068-.95187,1.38988-2.18074,1.38988-2.18074,0,0-2.02315-3.16344-2.6809-4.05462-.10718-.14535-.21411-.26721-.31835-.36998-.42137-.41403-1.06125-.50212-1.58612-.2305,0,0-6.34132,3.3362-8.3975,4.44859l-.03985,.02163c-1.5554,.8468-1.67822,3.03969-.26091,4.10157l2.0629,1.54557c.60581,.45388,1.38987,.53954,2.11063,.3082,.21703-.06966,.42338-.11158,.6327-.11158Z" style="fill:#8595aa;"/><circle cx="12.14179" cy="32.38253" r="2.26104" style="fill:#d0d6de;"/><circle cx="11.7917" cy="12.19815" r="1.44444" style="fill:#d0d6de;"/></g><rect width="40" height="40" style="fill:none;"/></svg>

<svg id="Layer_1" data-name="Layer 1" xmlns="http://www.w3.org/2000/svg" viewBox="0 0 40 40"><defs><style>.cls-1{fill:#8595aa;}.cls-2{fill:#65778e;}.cls-3{fill:#d0d6de;}.cls-4{fill:none;}</style></defs><path class="cls-1" d="M10.9,10.884h0A3.081,3.081,0,0,0,7.89,13.3C6.842,18.024,4.869,28.274,4.831,31.489c0,.038,0,.077,0,.114.007,4.092,5.787,5.022,7.2,1.181l2.2-5.991s-.159-8.275-.248-12.889A3.079,3.079,0,0,0,10.9,10.884Z"/><path class="cls-2" d="M25.214,37.054c2.951,0,9.956-2.41,9.956-7.462,0-5.387-4.067-8.3-10.869-8.3-5.4,0-13.721,5.009-15.853,7.847a4.947,4.947,0,0,0,.388,6.528,4.913,4.913,0,0,0,3.393,1.352C18.408,37.038,23.24,37.054,25.214,37.054Z"/><path class="cls-2" d="M23.17,11.51a1.539,1.539,0,0,0-.407-1.573l-5.3,3.478c1.025-.188,3.017-.552,3.487-.626C21.6,12.688,22.826,12.371,23.17,11.51Z"/><path class="cls-1" d="M15.676,13.415h1.792l5.3-3.478c2.207-.952,1.39-2.181,1.39-2.181S22.13,4.593,21.472,3.7a3.077,3.077,0,0,0-.318-.37A1.366,1.366,0,0,0,19.568,3.1s-6.341,3.336-8.4,4.449l-.039.021a2.448,2.448,0,0,0-.261,4.1l2.063,1.546a2.315,2.315,0,0,0,2.11.308A2.051,2.051,0,0,1,15.676,13.415Z"/><circle class="cls-3" cx="12.142" cy="32.383" r="2.261"/><circle class="cls-3" cx="11.792" cy="12.198" r="1.444"/><rect class="cls-4" width="40" height="40"/></svg>
